docs/drawio/icons/docker.svg

<svg xmlns="http://www.w3.org/2000/svg" viewBox="0 0 114.9 80" style="enable-background:new 0 0 114.9 80" xml:space="preserve">
    <path d="M65 31.5h11.9m-26 0h11.9m-25.8 0h11.9m-25.8 0h11.6m-25.8 0h11.9m2.3-13h11.6m2.3 0h11.9m2 0h11.9M50.9 5.4h11.9" style="stroke:#2497ed;stroke-width:10.7669"/>
    <path d="M114.9 32.1s-5.1-4.8-15.6-3.1c-1.1-8.2-9.9-13-9.9-13s-8.2 9.9-2.3 21c-1.7.9-4.5 2-8.8 2H.4C-1 44.3-1 80 38.1 80c28.1 0 49-13 58.9-36.8 14.8 1.1 17.9-11.1 17.9-11.1" style="fill:#2497ed"/>
</svg>

<?xml version="1.0" encoding="utf-8"?>
<!-- Generator: Adobe Illustrator 26.3.1, SVG Export Plug-In . SVG Version: 6.00 Build 0)  -->
<svg version="1.1" id="Layer_1" xmlns="http://www.w3.org/2000/svg" xmlns:xlink="http://www.w3.org/1999/xlink" x="0px" y="0px"
	 viewBox="0 0 114.9 80" style="enable-background:new 0 0 114.9 80;" xml:space="preserve">
<style type="text/css">
	.st0{stroke:#2497ED;stroke-width:10.7669;}
	.st1{fill:#2497ED;}
</style>
<g>
	<path class="st0" d="M65,31.5h11.9 M50.9,31.5h11.9 M37,31.5h11.9 M23.1,31.5h11.6 M8.9,31.5h11.9 M23.1,18.5h11.6 M37,18.5h11.9
		 M50.9,18.5h11.9 M50.9,5.4h11.9"/>
	<path class="st1" d="M114.9,32.1c0,0-5.1-4.8-15.6-3.1c-1.1-8.2-9.9-13-9.9-13s-8.2,9.9-2.3,21c-1.7,0.9-4.5,2-8.8,2H0.4
		C-1,44.3-1,80,38.1,80c28.1,0,49-13,58.9-36.8C111.8,44.3,114.9,32.1,114.9,32.1"/>
</g>
</svg>
